ix/car_bold.svg

<svg viewBox="0 0 24 24" fill="none" xmlns="http://www.w3.org/2000/svg" height="1em" width="1em">
  <path d="M21.75 7.99813C21.75 8.40812 21.41 8.74813 21 8.74813H3C2.59 8.74813 2.25 8.40812 2.25 7.99813C2.25 7.58813 2.59 7.24813 3 7.24813H4.02L4.4 5.43813C4.76 3.68813 5.51 2.07812 8.49 2.07812H15.51C18.49 2.07812 19.24 3.68813 19.6 5.43813L19.98 7.24813H21C21.41 7.24813 21.75 7.58813 21.75 7.99813Z" fill="#292D32"/>
  <path d="M22.1816 13.66C22.0316 12.01 21.5915 10.25 18.3815 10.25H5.62155C2.41155 10.25 1.98155 12.01 1.82155 13.66L1.26155 19.75C1.19155 20.51 1.44155 21.27 1.96155 21.84C2.49155 22.42 3.24155 22.75 4.04155 22.75H5.92155C7.54155 22.75 7.85155 21.82 8.05155 21.21L8.25155 20.61C8.48155 19.92 8.54155 19.75 9.44155 19.75H14.5616C15.4616 19.75 15.4916 19.85 15.7516 20.61L15.9516 21.21C16.1516 21.82 16.4616 22.75 18.0816 22.75H19.9615C20.7516 22.75 21.5116 22.42 22.0416 21.84C22.5616 21.27 22.8116 20.51 22.7416 19.75L22.1816 13.66ZM9.00155 15.75H6.00155C5.59155 15.75 5.25155 15.41 5.25155 15C5.25155 14.59 5.59155 14.25 6.00155 14.25H9.00155C9.41155 14.25 9.75155 14.59 9.75155 15C9.75155 15.41 9.41155 15.75 9.00155 15.75ZM18.0016 15.75H15.0016C14.5916 15.75 14.2516 15.41 14.2516 15C14.2516 14.59 14.5916 14.25 15.0016 14.25H18.0016C18.4116 14.25 18.7516 14.59 18.7516 15C18.7516 15.41 18.4116 15.75 18.0016 15.75Z" fill="#292D32"/>
</svg>

<svg viewBox="0 0 24 24" fill="none" xmlns="http://www.w3.org/2000/svg" height="1em" width="1em">
  <path d="M21.75 7.998c0 .41-.34.75-.75.75H3c-.41 0-.75-.34-.75-.75s.34-.75.75-.75h1.02l.38-1.81c.36-1.75 1.11-3.36 4.09-3.36h7.02c2.98 0 3.73 1.61 4.09 3.36l.38 1.81H21c.41 0 .75.34.75.75Zm.432 5.662c-.15-1.65-.59-3.41-3.8-3.41H5.621c-3.21 0-3.64 1.76-3.8 3.41l-.56 6.09c-.07.76.18 1.52.7 2.09.53.58 1.28.91 2.08.91h1.88c1.62 0 1.93-.93 2.13-1.54l.2-.6c.23-.69.29-.86 1.19-.86h5.12c.9 0 .93.1 1.19.86l.2.6c.2.61.51 1.54 2.13 1.54h1.88c.79 0 1.55-.33 2.08-.91.52-.57.77-1.33.7-2.09l-.56-6.09Zm-13.18 2.09h-3c-.41 0-.75-.34-.75-.75s.34-.75.75-.75h3c.41 0 .75.34.75.75s-.34.75-.75.75Zm9 0h-3c-.41 0-.75-.34-.75-.75s.34-.75.75-.75h3c.41 0 .75.34.75.75s-.34.75-.75.75Z" fill="#292D32"/>
</svg>
